static/img/kroki/3f3a1907489b2dc8b8e295b372ff20f6.svg

<?xml version="1.0" encoding="us-ascii" standalone="no"?><svg xmlns="http://www.w3.org/2000/svg" xmlns:xlink="http://www.w3.org/1999/xlink" contentStyleType="text/css" height="374px" preserveAspectRatio="none" style="width:500px;height:374px;" version="1.1" viewBox="0 0 500 374" width="500px" zoomAndPan="magnify"><defs/><g><!--class account--><g id="elem_account"><rect codeLine="23" fill="#3D176E" height="39.7891" id="account" rx="2.5" ry="2.5" style="stroke:#000D19;stroke-width:0.5;" width="107" x="7" y="167.79"/><ellipse cx="22" cy="187.6845" fill="#ADD1B2" rx="11" ry="11" style="stroke:#181818;stroke-width:1.0;"/><path d="M24.9688,193.3252 Q24.3906,193.622 23.75,193.7627 Q23.1094,193.9189 22.4063,193.9189 Q19.9063,193.9189 18.5781,192.2783 Q17.2656,190.622 17.2656,187.497 Q17.2656,184.372 18.5781,182.7158 Q19.9063,181.0595 22.4063,181.0595 Q23.1094,181.0595 23.75,181.2158 Q24.4063,181.372 24.9688,181.6689 L24.9688,184.3877 Q24.3438,183.8095 23.75,183.5439 Q23.1563,183.2627 22.5313,183.2627 Q21.1875,183.2627 20.5,184.3408 Q19.8125,185.4033 19.8125,187.497 Q19.8125,189.5908 20.5,190.6689 Q21.1875,191.7314 22.5313,191.7314 Q23.1563,191.7314 23.75,191.4658 Q24.3438,191.1845 24.9688,190.6064 L24.9688,193.3252 Z " fill="#000000"/><text fill="#D9B8FF" font-family="Helvetica" font-size="17" lengthAdjust="spacing" textLength="65" x="41" y="193.5698">account</text></g><!--class aws_account--><g id="elem_aws_account"><rect codeLine="26" fill="#3D176E" height="39.7891" id="aws_account" rx="2.5" ry="2.5" style="stroke:#000D19;stroke-width:0.5;" width="149" x="152" y="328.58"/><ellipse cx="167" cy="348.4745" fill="#ADD1B2" rx="11" ry="11" style="stroke:#181818;stroke-width:1.0;"/><path d="M169.9688,354.1152 Q169.3906,354.412 168.75,354.5527 Q168.1094,354.7089 167.4063,354.7089 Q164.9063,354.7089 163.5781,353.0683 Q162.2656,351.412 162.2656,348.287 Q162.2656,345.162 163.5781,343.5058 Q164.9063,341.8495 167.4063,341.8495 Q168.1094,341.8495 168.75,342.0058 Q169.4063,342.162 169.9688,342.4589 L169.9688,345.1777 Q169.3438,344.5995 168.75,344.3339 Q168.1563,344.0527 167.5313,344.0527 Q166.1875,344.0527 165.5,345.1308 Q164.8125,346.1933 164.8125,348.287 Q164.8125,350.3808 165.5,351.4589 Q166.1875,352.5214 167.5313,352.5214 Q168.1563,352.5214 168.75,352.2558 Q169.3438,351.9745 169.9688,351.3964 L169.9688,354.1152 Z " fill="#000000"/><text fill="#D9B8FF" font-family="Helvetica" font-size="17" lengthAdjust="spacing" textLength="107" x="186" y="354.3598">aws_account</text></g><!--class aws_resource--><g id="elem_aws_resource"><rect codeLine="29" fill="#3D176E" height="39.7891" id="aws_resource" rx="2.5" ry="2.5" style="stroke:#000D19;stroke-width:0.5;" width="155" x="149" y="167.79"/><ellipse cx="164" cy="187.6845" fill="#ADD1B2" rx="11" ry="11" style="stroke:#181818;stroke-width:1.0;"/><path d="M166.9688,193.3252 Q166.3906,193.622 165.75,193.7627 Q165.1094,193.9189 164.4063,193.9189 Q161.9063,193.9189 160.5781,192.2783 Q159.2656,190.622 159.2656,187.497 Q159.2656,184.372 160.5781,182.7158 Q161.9063,181.0595 164.4063,181.0595 Q165.1094,181.0595 165.75,181.2158 Q166.4063,181.372 166.9688,181.6689 L166.9688,184.3877 Q166.3438,183.8095 165.75,183.5439 Q165.1563,183.2627 164.5313,183.2627 Q163.1875,183.2627 162.5,184.3408 Q161.8125,185.4033 161.8125,187.497 Q161.8125,189.5908 162.5,190.6689 Q163.1875,191.7314 164.5313,191.7314 Q165.1563,191.7314 165.75,191.4658 Q166.3438,191.1845 166.9688,190.6064 L166.9688,193.3252 Z " fill="#000000"/><text fill="#D9B8FF" font-family="Helvetica" font-size="17" lengthAdjust="spacing" textLength="113" x="183" y="193.5698">aws_resource</text></g><!--class iam_principal--><g id="elem_iam_principal"><rect codeLine="32" fill="#3D176E" height="39.7891" id="iam_principal" rx="2.5" ry="2.5" style="stroke:#000D19;stroke-width:0.5;" width="154" x="339.5" y="167.79"/><ellipse cx="354.5" cy="187.6845" fill="#ADD1B2" rx="11" ry="11" style="stroke:#181818;stroke-width:1.0;"/><path d="M357.4688,193.3252 Q356.8906,193.622 356.25,193.7627 Q355.6094,193.9189 354.9063,193.9189 Q352.4063,193.9189 351.0781,192.2783 Q349.7656,190.622 349.7656,187.497 Q349.7656,184.372 351.0781,182.7158 Q352.4063,181.0595 354.9063,181.0595 Q355.6094,181.0595 356.25,181.2158 Q356.9063,181.372 357.4688,181.6689 L357.4688,184.3877 Q356.8438,183.8095 356.25,183.5439 Q355.6563,183.2627 355.0313,183.2627 Q353.6875,183.2627 353,184.3408 Q352.3125,185.4033 352.3125,187.497 Q352.3125,189.5908 353,190.6689 Q353.6875,191.7314 355.0313,191.7314 Q355.6563,191.7314 356.25,191.4658 Q356.8438,191.1845 357.4688,190.6064 L357.4688,193.3252 Z " fill="#000000"/><text fill="#D9B8FF" font-family="Helvetica" font-size="17" lengthAdjust="spacing" textLength="112" x="373.5" y="193.5698">iam_principal</text></g><!--class resource--><g id="elem_resource"><rect codeLine="35" fill="#3D176E" height="39.7891" id="resource" rx="2.5" ry="2.5" style="stroke:#000D19;stroke-width:0.5;" width="113" x="170" y="7"/><ellipse cx="185" cy="26.8945" fill="#ADD1B2" rx="11" ry="11" style="stroke:#181818;stroke-width:1.0;"/><path d="M187.9688,32.5352 Q187.3906,32.832 186.75,32.9727 Q186.1094,33.1289 185.4063,33.1289 Q182.9063,33.1289 181.5781,31.4883 Q180.2656,29.832 180.2656,26.707 Q180.2656,23.582 181.5781,21.9258 Q182.9063,20.2695 185.4063,20.2695 Q186.1094,20.2695 186.75,20.4258 Q187.4063,20.582 187.9688,20.8789 L187.9688,23.5977 Q187.3438,23.0195 186.75,22.7539 Q186.1563,22.4727 185.5313,22.4727 Q184.1875,22.4727 183.5,23.5508 Q182.8125,24.6133 182.8125,26.707 Q182.8125,28.8008 183.5,29.8789 Q184.1875,30.9414 185.5313,30.9414 Q186.1563,30.9414 186.75,30.6758 Q187.3438,30.3945 187.9688,29.8164 L187.9688,32.5352 Z " fill="#000000"/><text fill="#D9B8FF" font-family="Helvetica" font-size="17" lengthAdjust="spacing" textLength="71" x="204" y="32.7798">resource</text></g><!--reverse link resource to account--><g id="link_resource_account"><path codeLine="38" d="M193.4719,59.4915 C161.5619,90.0115 112.55,136.9 80.59,167.46 " fill="none" id="resource-backto-account" style="stroke:#FFAF37;stroke-width:2.0;"/><polygon fill="none" points="206.48,47.05,189.3248,55.1554,197.6191,63.8275,206.48,47.05" style="stroke:#FFAF37;stroke-width:2.0;"/></g><!--reverse link account to aws_account--><g id="link_account_aws_account"><path codeLine="39" d="M93.5281,220.2815 C125.4381,250.8015 174.45,297.69 206.41,328.25 " fill="none" id="account-backto-aws_account" style="stroke:#FFAF37;stroke-width:2.0;"/><polygon fill="none" points="80.52,207.84,89.3809,224.6175,97.6752,215.9454,80.52,207.84" style="stroke:#FFAF37;stroke-width:2.0;"/></g><!--reverse link aws_resource to aws_account--><g id="link_aws_resource_aws_account"><path codeLine="40" d="M226.5,225.84 C226.5,256.36 226.5,297.69 226.5,328.25 " fill="none" id="aws_resource-backto-aws_account" style="stroke:#FFAF37;stroke-width:2.0;"/><polygon fill="none" points="226.5,207.84,220.5,225.84,232.5,225.84,226.5,207.84" style="stroke:#FFAF37;stroke-width:2.0;"/></g><!--reverse link iam_principal to aws_account--><g id="link_iam_principal_aws_account"><path codeLine="41" d="M379.7682,219.3827 C343.2482,249.9027 286.07,297.69 249.5,328.25 " fill="none" id="iam_principal-backto-aws_account" style="stroke:#FFAF37;stroke-width:2.0;"/><polygon fill="none" points="393.58,207.84,375.9206,214.7787,383.6157,223.9866,393.58,207.84" style="stroke:#FFAF37;stroke-width:2.0;"/></g><!--reverse link resource to aws_resource--><g id="link_resource_aws_resource"><path codeLine="42" d="M226.5,65.05 C226.5,95.57 226.5,136.9 226.5,167.46 " fill="none" id="resource-backto-aws_resource" style="stroke:#FFAF37;stroke-width:2.0;"/><polygon fill="none" points="226.5,47.05,220.5,65.05,232.5,65.05,226.5,47.05" style="stroke:#FFAF37;stroke-width:2.0;"/></g><!--reverse link resource to iam_principal--><g id="link_resource_iam_principal"><path codeLine="43" d="M263.2318,58.5927 C299.7518,89.1127 356.93,136.9 393.5,167.46 " fill="none" id="resource-backto-iam_principal" style="stroke:#FFAF37;stroke-width:2.0;"/><polygon fill="none" points="249.42,47.05,259.3843,63.1966,267.0794,53.9887,249.42,47.05" style="stroke:#FFAF37;stroke-width:2.0;"/></g><!--SRC=[XP1BRy8m48Jl_XMME2E5eXOYzGAHglQ2gj8xMkmrM4diQ6sAwEE_bnH2dPZ7qJEVTsPthILoB2k_uoMMIoJ7NAvD1GGbdn3PRMOBIxod5AZXg6i-MUDl0ZCeaJzZyO5U2-WIxsijSeFEyRl0ceB8LsGtHXx6UmBZzXOQ7r1P0SvDl2Uzt7WCoiXqELQgItQ7zePoC7h02BCaaOv8aYHoa7QHcr5NzpuHS_s9V10URMOzHZMZY3_gQikQ24f6YpR-nOwl8AKsAtuVQ6-7JcIGMlfy3T9kQrf1uS8Ovv7G-bs5MRGLfcEfHcVXbqim4_NfE0Ynzpp_OkodaRPkSK4cT7P30aDTGxceI1kXAoX2emsVNe_V_Nw_oMLDq57zZsQjlDXknyR-cQ-DrFLQezWl]--></g></svg>

<svg xmlns="http://www.w3.org/2000/svg" width="500" height="374" viewBox="0 0 500 374"><rect width="107" height="39.789" x="7" y="167.79" fill="#3D176E" rx="2.5" ry="2.5" style="stroke:#000d19;stroke-width:.5"/><circle cx="22" cy="187.685" r="11" fill="#ADD1B2" style="stroke:#181818;stroke-width:1"/><path d="M24.969 193.325q-.578.297-1.219.438-.64.156-1.344.156-2.5 0-3.828-1.64-1.312-1.657-1.312-4.782t1.312-4.781q1.328-1.656 3.828-1.656.703 0 1.344.156.656.156 1.219.453v2.719q-.625-.578-1.219-.844-.594-.281-1.219-.281-1.343 0-2.031 1.078-.687 1.062-.687 3.156t.687 3.172q.688 1.062 2.031 1.062.625 0 1.219-.265.594-.281 1.219-.86z"/><text x="41" y="193.57" fill="#D9B8FF" font-family="Helvetica" font-size="17" textLength="65">account</text><rect width="149" height="39.789" x="152" y="328.58" fill="#3D176E" rx="2.5" ry="2.5" style="stroke:#000d19;stroke-width:.5"/><circle cx="167" cy="348.474" r="11" fill="#ADD1B2" style="stroke:#181818;stroke-width:1"/><path d="M169.969 354.115q-.578.297-1.219.438-.64.156-1.344.156-2.5 0-3.828-1.64-1.312-1.657-1.312-4.782t1.312-4.781q1.328-1.656 3.828-1.656.703 0 1.344.156.656.156 1.219.453v2.719q-.625-.579-1.219-.844-.594-.281-1.219-.281-1.344 0-2.031 1.078-.687 1.062-.687 3.156t.687 3.172q.688 1.062 2.031 1.062.625 0 1.219-.265.594-.281 1.219-.86z"/><text x="186" y="354.36" fill="#D9B8FF" font-family="Helvetica" font-size="17" textLength="107">aws_account</text><rect width="155" height="39.789" x="149" y="167.79" fill="#3D176E" rx="2.5" ry="2.5" style="stroke:#000d19;stroke-width:.5"/><circle cx="164" cy="187.685" r="11" fill="#ADD1B2" style="stroke:#181818;stroke-width:1"/><path d="M166.969 193.325q-.578.297-1.219.438-.64.156-1.344.156-2.5 0-3.828-1.64-1.312-1.657-1.312-4.782t1.312-4.781q1.328-1.656 3.828-1.656.703 0 1.344.156.656.156 1.219.453v2.719q-.625-.578-1.219-.844-.594-.281-1.219-.281-1.344 0-2.031 1.078-.687 1.062-.687 3.156t.687 3.172q.688 1.062 2.031 1.062.625 0 1.219-.265.594-.281 1.219-.86z"/><text x="183" y="193.57" fill="#D9B8FF" font-family="Helvetica" font-size="17" textLength="113">aws_resource</text><rect width="154" height="39.789" x="339.5" y="167.79" fill="#3D176E" rx="2.5" ry="2.5" style="stroke:#000d19;stroke-width:.5"/><circle cx="354.5" cy="187.685" r="11" fill="#ADD1B2" style="stroke:#181818;stroke-width:1"/><path d="M357.469 193.325q-.578.297-1.219.438-.64.156-1.344.156-2.5 0-3.828-1.64-1.312-1.657-1.312-4.782t1.312-4.781q1.328-1.656 3.828-1.656.703 0 1.344.156.656.156 1.219.453v2.719q-.625-.578-1.219-.844-.594-.281-1.219-.281-1.344 0-2.031 1.078-.687 1.062-.687 3.156t.687 3.172q.688 1.062 2.031 1.062.625 0 1.219-.265.594-.281 1.219-.86z"/><text x="373.5" y="193.57" fill="#D9B8FF" font-family="Helvetica" font-size="17" textLength="112">iam_principal</text><rect width="113" height="39.789" x="170" y="7" fill="#3D176E" rx="2.5" ry="2.5" style="stroke:#000d19;stroke-width:.5"/><circle cx="185" cy="26.895" r="11" fill="#ADD1B2" style="stroke:#181818;stroke-width:1"/><path d="M187.969 32.535q-.578.297-1.219.438-.64.156-1.344.156-2.5 0-3.828-1.64-1.312-1.657-1.312-4.782t1.312-4.781q1.328-1.656 3.828-1.656.703 0 1.344.156.656.156 1.219.453v2.719q-.625-.578-1.219-.844-.594-.281-1.219-.281-1.344 0-2.031 1.078-.687 1.062-.687 3.156t.687 3.172q.688 1.062 2.031 1.062.625 0 1.219-.265.594-.281 1.219-.86z"/><text x="204" y="32.78" fill="#D9B8FF" font-family="Helvetica" font-size="17" textLength="71">resource</text><path fill="none" d="M193.472 59.492C161.562 90.012 112.55 136.9 80.59 167.46M206.48 47.05l-17.155 8.105 8.294 8.673zM93.528 220.282c31.91 30.52 80.922 77.408 112.882 107.968M80.52 207.84l8.86 16.778 8.295-8.673zm145.98 18v102.41m0-120.41-6 18h12zm153.268 11.543c-36.52 30.52-93.698 78.307-130.268 108.867m144.08-120.41-17.66 6.939 7.696 9.208zM226.5 65.05v102.41m0-120.41-6 18h12zm36.732 11.543C299.752 89.113 356.93 136.9 393.5 167.46M249.42 47.05l9.964 16.147 7.695-9.208z" style="stroke:#ffaf37;stroke-width:2"/></svg>
